X: 130
T:Atkins Menagerie,From. CJF.130
T:From Atkins Menagerie. CJF.130
M:2/4
L:1/16
Q:90
S:C.J.Fox MS, 1829/33, Beverley,E.Yorks.
R:Air
O:England
A:East Yorkshire
B:Kidson Coll.Mitchell Lib.M1805
N:The asterisk indicates where there is a bar with a lone quaver rest
N:(z2) in the MS. - PJH.
Z:vmp.P J Headford 200
K:G
g2gg g2g2|g2d2b4|a2f2a2f2|afgb b>ag>f|!
e2ee e2e2|f2d2 b3a|g>ba>g f>ag>f|e4z4:|!
|:d>cd>e f>ga>f|g>fg>a g>fg>e|d>cd>e f>ga>f|\
g>fg>a b>fg>a|!
(dg) B2 cege|(dg) B2 cege|d>ef>g a>bc'>a|g4z4:|!
|:dddd d2a2|(d2g2) (d2g2)|(c2e2) (c2e2)|A>Bc>d B2G2|!
dddd d2g2|f2a2f2d2|B2e2 dcBc|d4z4:|!
|:"*"ffff f2g2|a2d2 b2g2|eeee a3g|fgfe dcBc|!
dddd d2g2|(e2g2)(d2g2)|ea f2 f>de>f|g4z4:|]
